packages/katcn/src/icons/svg/layers-solid.svg

<svg width="24" height="25" viewBox="0 0 24 25" fill="none" xmlns="http://www.w3.org/2000/svg">
<path d="M12 13.012C11.3 13.012 10.7 12.912 10 12.612L3.1 9.41201C2.4 9.11201 2 8.41201 2 7.61201C2 6.81201 2.4 6.21201 3.1 5.81201L10 2.71201C11.3 2.11201 12.7 2.11201 13.9 2.71201L20.8 5.81201C21.5 6.11201 21.9 6.81201 21.9 7.61201C21.9 8.41201 21.5 9.01201 20.8 9.41201L14 12.512C13.3 12.812 12.7 13.012 12 13.012Z" fill="black"/>
<path d="M12 17.612C11.3 17.612 10.7 17.512 10 17.212L3.10002 14.112C2.60002 13.912 2.40002 13.312 2.60002 12.812C2.90002 12.212 3.50002 12.012 4.00002 12.212L10.9 15.312C11.6 15.612 12.5 15.612 13.2 15.312L20 12.212C20.5 12.012 21.1 12.212 21.3 12.712C21.5 13.212 21.3 13.812 20.8 14.012L14 17.212C13.3 17.412 12.7 17.612 12 17.612Z" fill="black"/>
<path d="M12 22.312C11.3 22.312 10.7 22.212 10 21.912L3.10002 18.812C2.60002 18.612 2.40002 18.012 2.60002 17.512C2.80002 17.012 3.40002 16.812 3.90002 17.012L10.8 20.112C11.5 20.412 12.4 20.412 13.1 20.112L20 17.012C20.5 16.812 21.1 17.012 21.3 17.512C21.5 18.012 21.3 18.612 20.8 18.812L14 21.912C13.3 22.212 12.7 22.312 12 22.312Z" fill="black"/>
</svg>

<svg xmlns="http://www.w3.org/2000/svg" fill="none" viewBox="0 0 24 25"><path fill="#000" d="M12 13.012c-.7 0-1.3-.1-2-.4l-6.9-3.2c-.7-.3-1.1-1-1.1-1.8s.4-1.4 1.1-1.8l6.9-3.1c1.3-.6 2.7-.6 3.9 0l6.9 3.1c.7.3 1.1 1 1.1 1.8s-.4 1.4-1.1 1.8l-6.8 3.1c-.7.3-1.3.5-2 .5"/><path fill="#000" d="M12 17.612c-.7 0-1.3-.1-2-.4l-6.9-3.1c-.5-.2-.7-.8-.5-1.3.3-.6.9-.8 1.4-.6l6.9 3.1c.7.3 1.6.3 2.3 0l6.8-3.1c.5-.2 1.1 0 1.3.5s0 1.1-.5 1.3l-6.8 3.2c-.7.2-1.3.4-2 .4"/><path fill="#000" d="M12 22.312c-.7 0-1.3-.1-2-.4l-6.9-3.1c-.5-.2-.7-.8-.5-1.3s.8-.7 1.3-.5l6.9 3.1c.7.3 1.6.3 2.3 0l6.9-3.1c.5-.2 1.1 0 1.3.5s0 1.1-.5 1.3l-6.8 3.1c-.7.3-1.3.4-2 .4"/></svg>
